src/amazon.svg

<svg viewBox="0 0 24 25" fill="none" xmlns="http://www.w3.org/2000/svg"><g clip-path="url(#amazon_svg__clip0_337_598)"><path d="M20.8583 19.7803C10.9411 24.499 4.78648 20.5505 0.846146 18.1532C0.602078 18.0027 0.188518 18.1885 0.54784 18.602C1.86038 20.1939 6.1614 24.0258 11.7763 24.0258C17.3912 24.0258 20.7377 20.9627 21.1526 20.4271C21.5675 19.8915 21.2746 19.6041 20.8543 19.7803H20.8583ZM23.6434 18.2413C23.3722 17.8942 22.0244 17.8346 21.1729 17.9349C20.3214 18.0352 19.04 18.5573 19.1512 18.8705C19.2082 18.9871 19.3248 18.9356 19.9105 18.8827C20.4963 18.8298 22.1438 18.6115 22.4868 19.0644C22.8299 19.5173 21.9621 21.6664 21.8089 22.0136C21.6556 22.3607 21.8672 22.4488 22.1546 22.2183C22.6592 21.7551 23.0508 21.1822 23.299 20.5437C23.6421 19.6922 23.8509 18.5098 23.6489 18.2386L23.6434 18.2413Z" fill="#FF9900"/><path fill-rule="evenodd" clip-rule="evenodd" d="M14.1898 10.1492C14.1898 11.3871 14.221 12.4203 13.5959 13.52C13.0902 14.4136 12.2902 14.9641 11.3953 14.9641C10.1749 14.9641 9.46441 14.0339 9.46441 12.659C9.46441 9.94712 11.8915 9.45763 14.1898 9.45763V10.1492ZM17.3953 17.8983C17.2926 17.9859 17.1658 18.0401 17.0315 18.0536C16.8973 18.0672 16.7621 18.0395 16.6441 17.9742C15.5892 17.0983 15.402 16.6915 14.8203 15.8549C13.0766 17.6353 11.8373 18.16 9.58102 18.16C6.90713 18.16 4.82306 16.5098 4.82306 13.2054C4.82306 10.6292 6.22238 8.86644 8.21289 8.01085C9.93763 7.25017 12.3485 7.11729 14.1898 6.90712V6.50034C14.1898 5.74508 14.2481 4.85153 13.8061 4.19525C13.417 3.60949 12.6739 3.36814 12.0217 3.36814C10.8095 3.36814 9.72747 3.98915 9.46441 5.27729C9.41018 5.56339 9.19323 5.84542 8.91391 5.85898L5.83052 5.53085C5.57153 5.47254 5.28814 5.25966 5.3573 4.86373C6.06645 1.12678 9.44136 0 12.4637 0C14.0109 0 16.0312 0.40678 17.2529 1.58237C18.8 3.02644 18.6522 4.95322 18.6522 7.05085V12.0041C18.6522 13.4956 19.2692 14.1464 19.8495 14.9505C20.0556 15.2366 20.1003 15.581 19.8414 15.7953C19.1932 16.3376 18.0393 17.3424 17.4007 17.9064L17.3912 17.8969" fill="black"/><path d="M20.8583 19.7803C10.9411 24.499 4.78648 20.5505 0.846146 18.1532C0.602078 18.0027 0.188518 18.1885 0.54784 18.602C1.86038 20.1939 6.1614 24.0258 11.7763 24.0258C17.3912 24.0258 20.7377 20.9627 21.1526 20.4271C21.5675 19.8915 21.2746 19.6041 20.8543 19.7803H20.8583ZM23.6434 18.2413C23.3722 17.8942 22.0244 17.8346 21.1729 17.9349C20.3214 18.0352 19.04 18.5573 19.1512 18.8705C19.2082 18.9871 19.3248 18.9356 19.9105 18.8827C20.4963 18.8298 22.1438 18.6115 22.4868 19.0644C22.8299 19.5173 21.9621 21.6664 21.8089 22.0136C21.6556 22.3607 21.8672 22.4488 22.1546 22.2183C22.6592 21.7551 23.0508 21.1822 23.299 20.5437C23.6421 19.6922 23.8509 18.5098 23.6489 18.2386L23.6434 18.2413Z" fill="#FF9900"/><path fill-rule="evenodd" clip-rule="evenodd" d="M14.1898 10.1492C14.1898 11.3871 14.221 12.4203 13.5959 13.52C13.0902 14.4136 12.2902 14.9641 11.3953 14.9641C10.1749 14.9641 9.46441 14.0339 9.46441 12.659C9.46441 9.94712 11.8915 9.45763 14.1898 9.45763V10.1492ZM17.3953 17.8983C17.2926 17.9859 17.1658 18.0401 17.0315 18.0536C16.8973 18.0672 16.7621 18.0395 16.6441 17.9742C15.5892 17.0983 15.402 16.6915 14.8203 15.8549C13.0766 17.6353 11.8373 18.16 9.58102 18.16C6.90713 18.16 4.82306 16.5098 4.82306 13.2054C4.82306 10.6292 6.22238 8.86644 8.21289 8.01085C9.93763 7.25017 12.3485 7.11729 14.1898 6.90712V6.50034C14.1898 5.74508 14.2481 4.85153 13.8061 4.19525C13.417 3.60949 12.6739 3.36814 12.0217 3.36814C10.8095 3.36814 9.72747 3.98915 9.46441 5.27729C9.41018 5.56339 9.19323 5.84542 8.91391 5.85898L5.83052 5.53085C5.57153 5.47254 5.28814 5.25966 5.3573 4.86373C6.06645 1.12678 9.44136 0 12.4637 0C14.0109 0 16.0312 0.40678 17.2529 1.58237C18.8 3.02644 18.6522 4.95322 18.6522 7.05085V12.0041C18.6522 13.4956 19.2692 14.1464 19.8495 14.9505C20.0556 15.2366 20.1003 15.581 19.8414 15.7953C19.1932 16.3376 18.0393 17.3424 17.4007 17.9064L17.3912 17.8969" fill="black"/></g><defs><clipPath id="amazon_svg__clip0_337_598"><rect width="23.3166" height="24.0285" fill="white" transform="translate(0.406799)"/></clipPath></defs></svg>

<svg viewBox="0 0 24 25" fill="none" xmlns="http://www.w3.org/2000/svg" xmlns:xlink="http://www.w3.org/1999/xlink"><defs><path d="M20.858 19.78C10.941 24.5 4.786 20.55.846 18.153c-.244-.15-.657.036-.298.449 1.312 1.592 5.613 5.424 11.228 5.424 5.615 0 8.962-3.063 9.377-3.599.415-.535.122-.823-.299-.647h.004Zm2.785-1.539c-.27-.347-1.619-.406-2.47-.306-.852.1-2.133.622-2.022.936.057.116.174.065.76.012.585-.053 2.233-.271 2.576.181.343.453-.525 2.602-.678 2.95-.153.347.058.435.346.204a4.473 4.473 0 0 0 1.144-1.674c.343-.852.552-2.034.35-2.305l-.006.002Z" fill="#FF9900" id="reuse-0"/><path fill-rule="evenodd" clip-rule="evenodd" d="M14.19 10.15c0 1.237.031 2.27-.594 3.37-.506.894-1.306 1.444-2.2 1.444-1.221 0-1.932-.93-1.932-2.305 0-2.712 2.428-3.201 4.726-3.201v.691Zm3.205 7.748a.663.663 0 0 1-.75.076c-1.056-.876-1.243-1.282-1.825-2.12-1.743 1.781-2.983 2.306-5.239 2.306-2.674 0-4.758-1.65-4.758-4.955 0-2.576 1.4-4.339 3.39-5.194 1.725-.76 4.136-.894 5.977-1.104V6.5c0-.755.058-1.648-.384-2.305-.389-.586-1.132-.827-1.784-.827-1.213 0-2.295.621-2.558 1.91-.054.285-.27.567-.55.581L5.83 5.531c-.26-.058-.543-.271-.474-.667C6.067 1.127 9.441 0 12.464 0c1.547 0 3.567.407 4.789 1.582 1.547 1.444 1.4 3.371 1.4 5.469v4.953c0 1.492.616 2.142 1.197 2.947.206.286.25.63-.009.844-.648.543-1.802 1.547-2.44 2.111l-.01-.01" fill="black" id="reuse-1"/></defs><g clip-path="url(#amazon_svg__clip0_337_598)"><use xlink:href="#reuse-0"/><use fill-rule="evenodd" clip-rule="evenodd" xlink:href="#reuse-1"/><use xlink:href="#reuse-0"/><use fill-rule="evenodd" clip-rule="evenodd" xlink:href="#reuse-1"/></g><defs><clipPath id="amazon_svg__clip0_337_598"><path fill="white" transform="translate(.407)" d="M0 0h23.317v24.029H0z"/></clipPath></defs></svg>
